src/asset/24px/new-window.svg

<svg width="24" height="24" viewBox="0 0 24 24" fill="none" xmlns="http://www.w3.org/2000/svg">
<path fill-rule="evenodd" clip-rule="evenodd" d="M10.3432 13.6566C10.7337 14.0471 11.3668 14.0471 11.7574 13.6566L18.9498 6.46417V10.5352C18.9498 11.0875 19.3975 11.5352 19.9498 11.5352C20.502 11.5352 20.9498 11.0875 20.9498 10.5352V4.04996C20.9498 3.49767 20.502 3.04996 19.9498 3.04996L13.4645 3.04996C12.9122 3.04996 12.4645 3.49767 12.4645 4.04996C12.4645 4.60224 12.9122 5.04996 13.4645 5.04996L17.5355 5.04996L10.3432 12.2423C9.95263 12.6329 9.95263 13.266 10.3432 13.6566Z" fill="#808080"/>
<path fill-rule="evenodd" clip-rule="evenodd" d="M6 6.99972C5.44772 6.99972 5 7.44743 5 7.99972V17.9997C5 18.552 5.44772 18.9997 6 18.9997H16C16.5523 18.9997 17 18.552 17 17.9997V14.7497C17 14.1974 17.4477 13.7497 18 13.7497C18.5523 13.7497 19 14.1974 19 14.7497V17.9997C19 19.6566 17.6569 20.9997 16 20.9997H6C4.34315 20.9997 3 19.6566 3 17.9997V7.99972C3 6.34286 4.34315 4.99972 6 4.99972H9.25C9.80228 4.99972 10.25 5.44743 10.25 5.99972C10.25 6.552 9.80228 6.99972 9.25 6.99972H6Z" fill="#808080"/>
</svg>

<svg width="24" height="24" fill="none" xmlns="http://www.w3.org/2000/svg"><path fill-rule="evenodd" clip-rule="evenodd" d="M10.343 13.657a1 1 0 001.414 0l7.193-7.193v4.071a1 1 0 102 0V4.05a1 1 0 00-1-1h-6.486a1 1 0 100 2h4.071l-7.192 7.192a1 1 0 000 1.415z" fill="gray"/><path fill-rule="evenodd" clip-rule="evenodd" d="M6 7a1 1 0 00-1 1v10a1 1 0 001 1h10a1 1 0 001-1v-3.25a1 1 0 112 0V18a3 3 0 01-3 3H6a3 3 0 01-3-3V8a3 3 0 013-3h3.25a1 1 0 110 2H6z" fill="gray"/></svg>
